X:1
T:O che forma dolente
T:O che forma dolente
T:Marc'Antonio Tornioli
T:Source : Canzonette spiriruale a tre voci---Libro Primo---Venetia---Ang.Gardano---1607 Editor : André Vierendeels (20/06/16).
T:Notes : Original clefs : C1, C1, F4 Text by Angelo Grillo (Pietosi affetti)
T:©
T:©
T:©
T:©
C:Marc'Antonio Tornioli
Z:©
%%score [ 1 2 3 ]
L:1/8
Q:1/4=106
M:4/4
K:F
V:1 treble nm="Soprano 1" snm="S 1"
V:2 treble nm="Soprano 2" snm="S 2"
V:3 bass nm="Bass" snm="B"
V:1
 d6 A2 | B2 BA c4 | A8 | B2 Bc d2 d2 | c2 c2 z2 B2- | BA G2 ^F2 G2 | G4 ^F4 | G8 :: z2 d4 c2 | %9
w: O che|for- ma do- len-|te,|mo- stri di Chri- sto'uc-|ci- so, ca-|* ro mio le- gno'in-|ci- *|so.|Co- me'af-|
 B4 c2 c2 | d4 d4 | c4 B4 | A8 | G4 D4 | z4 F2 G2 | A2 c2 c2 =B2 | c4 B2 c2 | d4 d2 z c | G8 | A8 | %20
w: flit- to Gie-|su mi|sei pre-|sen-|te, ahi,|men- tre'io|qui ti mi- *|ro, men- tre'in|me ti so-|spi-|ro,|
 z4 A2 GF | G2 c2 c2 =B2 | c2 B2 B2 A2 | B2 B2 G2 B2 | AGFE D4- | D4 E2 F2- | F2 E2 D4 | E4 d4 | %28
w: ca- ra mia|pia- ga'e dol- ce|mio do- lo- *|re, fa san- gue'il|pian- t'e cro- ci- fis-|* so'il co-||re, fa|
 B2 d2 cBAG | F4 B2 F2 | c2 A2 =B2 c2 | A8 | G8 :| %33
w: san- gue pian- t'e cro- ci-|fis- so, e|cro- ci- fis- so'il|co-|re.|
V:2
 F6 F2 | D2 DD G4- | G4 ^F4 | z4 F2 FG | A2 A2 A2 B2 | d3 c B2 B2- | B2 A2 A4 | G8 :: F4 A4 | %9
w: O che|for- ma do- len-|* te,|mo- stri di|Chri- sto'uc- ci- so,|ca- ro mio le-|* gno'in- ci-|so.|Co- me'af-|
 G4 A2 G2 | ^F4 G4 | AA F3 E/D/ E2 | F2 ED C2 D2 | E4 F4 | F2 G2 A4- | A2 G2 D4 | E4 z4 | %17
w: flit- to Gie-|su mi|sei pre- sen- * * *||te, ahi,|men- tre'io qui|_ ti mi-|ro,|
 D2 E2 F2 F2- | F2 F2 E4 | F8 | d2 cB A2 =B2 | c2 G2 d2 d2 | _e2 d2 c4 | B2 d2 B2 d2 | cBAG F4 | %25
w: men- tre'in me ti|_ so- spi-|ro,|ca- ra mia pia- ga'e|dol- ce mio do-|lo- * *|re, fa san- gue'il|pian- t'e cro- ci- fis-|
 B2 d2 c2 A2 | AB c4 =B2 | c4 B4 | G2 B2 AGFE | D4 D2 D2 | E2 F2 F2 E2 | ^F2 G3 F/E/ F2 | G8 :| %33
w: so, e cro- ci-|fis- so'il co- *|re, fa|san- gua pian- t'e cro- ci-|fis- so, e|cro- ci- fis- so'il|co- * * * *|re.|
V:3
 B,6 F,2 | G,2 G,F, _E,4 | D,8 | G,2 G,A, B,2 D,2 | F,4 F,2 G,2- | G,F, _E,2 D,2 C,2 | D,8 | %7
w: O che|for- ma do- len-|te,|mo- stri di Chri- sto'uc-|ci- so, ca-|* ro mio le- gno'in-|ci-|
 G,,8 :: B,4 F,4 | G,4 F,2 _E,2 | D,4 B,,4 | F,,4 G,,4 | F,,8 | C,4 B,,4 | D,2 E,2 F,4- | %15
w: so.|Co- me'af-|flit- to Gie-|su mi|sei pre-|sen-|te, ahi,|men- tre'io qui|
 F,2 E,2 G,4 | C,4 G,,2 A,,2 | B,,4 B,,2 A,,2 | C,8 | F,8 | B,2 A,G, F,2 D,2 | E,4 G,4 | %22
w: _ ti mi-|ro, men- tre'in|me ti so-|spi-|ro,|ca- ra mia pia- ga'e|dol- ce|
 C,2 D,2 _E,2 F,2 | B,,4 z4 | z4 z2 B,2 | G,2 B,2 A,G,F,E, | D,2 C,2 G,4 | C,4 z4 | z8 | %29
w: mio do- lo- *|re,|fa|san- gue pian- t'e cro- ci-|fis- so'il co-|re,||
 z2 B,2 G,2 B,2 | A,G,F,E, D,2 C,2 | D,8 | G,,8 :| %33
w: fa san- gue|pian- t'e cro- ci- fis- so'il|co-|re.|

